X:102
T: ZEUCH FAHLE ZEUCH
N: E1140
O: Europa, Mitteleuropa, Deutschland
R: Trink -, Zech - Lied
M: 4/4
L: 1/4
K: C
 | G2E^F | G2z2 |
G2E^F | G2z2 |
EFGF | EDC2 |
EFGF | EDC2 |
C2DD | C2z2 |
E2DD | C4

@@@ Tune index: 4786
